X:1
T:James Gibb editions
T:Psalm 100 (Becker) - Schütz
%%score [ ( 1 2 ) ( 3 4 ) ]
L:1/8
Q:1/4=98
M:3/4
K:Eb
V:1 treble nm="Soprano Alto"
V:2 treble 
V:3 bass nm="Tenor Bass"
V:4 bass 
V:1
"^Cornelius Becker\n(1561-1604)""^Psalm 100, SWV 198""^Heinrich Schütz\n(1585-1672)" e2 _d2 B2 | %1
w: |
 c6 | A2 B2 A2 | G6 | G2 A2 B2 | (c3 d e2) | f2 (ed) c2 | B6 | d2 d2 d2 | d6 | e2 d2 d2 | c6 | %12
w: ||||sei\- * *|nen Dienst * be-|stelt,|kommt vor sein||lig An- ge-|sicht|
 A2 A2 B2 | (c3 B A2) | G2 A2 F2 | E12 |] %16
w: mit Froh- lok-|ken * *|und schwei- get|nicht.|
V:2
 G2 A2 B2 | (E3 F G2) | F2 F2 F2 | =E6 | =E2 F2 G2 | A4 G2 | (B2 G2) =A2 | B6 | G2 G2 G2 | G6 | %10
w: ~Jauch- zet dem|Her\- * *|ren al- le|Welt,|mit Freu- den|sei- nen|Dienst * be-|stellt,|||
 G2 A2 G2 | G6 | F2 F2 F2 | (A3 G/F/ E2) | E2 E2 D2 | E12 |] %16
w: ||||||
V:3
 B,2 F2 E2 | C6 | C2 _D2 C2 | C6 | C2 C2 E2 | E6 | D2 B,2 F2 | D6 | %8
w: ||||||||
 =B,2 B,2"^2. Der Herr ist Gott, nehmts wohl in acht,\nnicht wir, der Herr hat uns gemacht,\ndurch ihn sein Volk wir sind bereit,\ngemacht zu Schafen seiner Weid.\n\n3. Zu seinen Toren gehet ein,\nfreudig zu den Vorhöfen sein,\nzu seinem Lobe kommt zusamm'n,\ndankt und preist seinen heiigen Nam'n.\n\n4. Denn unser Herr ist freundlich sehr,\nsein Gnad vergehet nimmermehr,\nsein Wahrheit bleibet für und für,\ndrum unsern Gott stets loben wir." B,2 | %9
w: |
 (=B,3 C D2) | C2 C2 =B,2 | C6 | F,2 F,2 _D2 | C6 | B,2 C2 B,2 | B,12 |] %16
w: hei\- * *|||||||
V:4
 E,2 F,2 G,2 | (A,3 G,/F,/ =E,2) | F,2 B,,2 F,2 | C,6 | C,2 F,2 E,2 | (A,3 B, C2) | B,2 E,2 F,2 | %7
 B,,6 | G,2 G,2 G,2 | (G,3 =A, =B,2) | E,2 F,2 G,2 | C,6 | _D,2 D,2 B,,2 | (F,3 G, A,2) | %14
 E,2 A,,2 B,,2 | E,12 |] %16

